X: 1435
T: With A Mile Of Clonbur
M:C|
L:1/8
B:O'Neill's 1435
Z:"Transcribed by Bob Safranek, rjs@gsp.org"
K:G
Bddg         egdg | egdB        (TBA) A2  | Bddg         edgd | BdAc (TBG) G z |
Bddg         egdg | egdB        (TBA) A z | bgaf         gedc | BdAc  (BG) G2 ||
((3efg) (dg) agbg | ((3efg) (dg)  ea  a2  | ((3efg)  dg  agbg | edef   ag  g2  |
((3efg) (dg) agbg | ((3efg) (dg) (ea) a2  | bgaf         gedc | BdAc  (BG) G2 |]


